X:12
T:Mountain House Waltz
C:Jay Ungar
S:Catskill's Irish Arts Week - P Allender
Z:robin.beech@mcgill.ca
R:waltz
M:3/4
L:1/8
K:A
(3EFG | A2 c3 f | e2 c2 AE | F2 A3 d | c2 A2 EC | D2 F3 A | E2 A2 c2 | c B2 F Bc |B4 (3EFG |
A2c3f | e2 c2 AE | F2 A3 d | c2 A2 EC | D2 F2 A2 | E2 c3B | A2-A3 B | A4 ::
(3efg | a3 cea | g3 efg | f3 cef | e2 c2 AE | F2 A3d | c2A2E2 | F2 A3c | B4 (3efg |
a3 cea | g3 efg | f3 cef | e2 c2 AE | F2 A2d2 | c2 E3 B | A2- A3 B | A4 :|
